!!!COM: Hensel, Fanny
!!!CDT: 1805/11/14-1847/05/14
!!!LYR: von Goethe, Johann
!!!OTL: Wer will mir wehren zu singen
**kern	**text	**kern	**text	**kern	**text
*part3	*part3	*part2	*part2	*part1	*part1
*staff3	*staff3	*staff2	*staff2	*staff1	*staff1
*I"Bariton	*	*I"Alt	*	*I"Sopran	*
*clefF4	*	*clefG2	*	*clefG2	*
*k[b-e-a-]	*	*k[b-e-a-]	*	*k[b-e-a-]	*
*E-:	*	*E-:	*	*E-:	*
*M6/8	*	*M6/8	*	*M6/8	*
=1	=1	=1	=1	=1	=1
8.G	Wer	8.e-	Wer	8.b-	Wer
16F	will	16e-	will	16a-	will
8E-	mir	8e-	mir	8f	mir
8A-	weh-	8e-	weh-	8cc	weh-
8G	-ren	8e-	-ren	8b-	-ren
8F	zu	8e-	zu	8a-	zu
=2	=2	=2	=2	=2	=2
4.B-	sin-	4.d	sin-	(4ff	sin-
.	.	.	.	8dd)	.
4B-	-gen	4d	-gen	4b-	-gen
8D	mit	8f	mit	8a-	mit
=3	=3	=3	=3	=3	=3
4E-	Lust	4e-	Lust	4g	Lust
8E-	den	8e-	den	8g	den
8.c	Him-	8.e-	Him-	8.ee-	Him-
16A-	-mel	16e-	-mel	16cc	-mel
8c	hin-	8e-	hin-	8a-	hin-
=4	=4	=4	=4	=4	=4
[4.B-	-an,	(4.e-	-an,	(4.g	-an,
4B-]	.	4d)	.	4f)	.
8B-	den	8d	den	8f	den
=5	=5	=5	=5	=5	=5
4A-	Wol-	4d	Wol-	4b-	Wol-
8A-	-ken	8d	-ken	8b-	-ken
4G	zu	4e-	zu	4b-	zu
8G	ver-	8e-	ver-	8b-	ver-
=6	=6	=6	=6	=6	=6
*b-:	*	*b-:	*	*b-:	*
4.B-	-trau-	4.en	-trau-	4.dd-X	-trau-
4r	-en,	4r	-en,	4cc	-en,
8B-	den	8e	den	8g	den
=7	=7	=7	=7	=7	=7
4B-	Wol-	4en	Wol-	4cc	Wol-
8B-	-ken	8e	-ken	8cc	-ken
4An	zu	4f	zu	4cc	zu
8A	ver-	8f	ver-	8cc	ver-
=8	=8	=8	=8	=8	=8
*c:	*	*c:	*	*c:	*
4.c	-trau-	4.f#X	-trau-	4.ee-	-trau-
4Bn	-en,	4g	-en,	4dd	-en,
8G	wie	8fn	wie	8g	wie
=9	=9	=9	=9	=9	=9
4.c	lieb	4.e-	lieb	8.gg	lieb
.	.	.	.	16ff	sie
.	.	.	.	8ee-	mir’s
4r	.	4r	.	8ddL	an-
.	.	.	.	8ccJ	.
*B-:	*	*B-:	*	*B-:	*
8c	wie	8e-	wie	8b-	-ge-
=10	=10	=10	=10	=10	=10
8.e-	lieb	8.g	lieb	4.an	-tan,
16d	sie	16f	sie	.	.
8c	mir’s	8e-	mir’s	.	.
8B-L	an-	8dL	an-	4r	.
8AnJ	.	8cJ	.	.	.
8G	-ge-	8B-	-ge-	8cc	wie
=11	=11	=11	=11	=11	=11
4.F	-tan,	4.An	-tan,	8.ee-	lieb
.	.	.	.	16dd	sie
.	.	.	.	8cc	mir’s
4r	.	4r	.	8b-L	an-
.	.	.	.	8anJ	.
8An	wie	8c	wie	8g	-ge-
=12	=12	=12	=12	=12	=12
(4.c	lieb,	(4.e-	lieb,	4.f	-tan,
4B-)	.	4d)	.	4r	.
8B-	wie	8d	wie	8f	wie
=13	=13	=13	=13	=13	=13
*E-:	*	*E-:	*	*E-:	*
4.A-	lieb	4.d	lieb	(4.cc	lieb,
4.G	sie	4.e-	sie	4b-)	.
.	.	.	.	8b-	wie
=14	=14	=14	=14	=14	=14
4.B-	mir’s	4.en	mir’s	4.dd-X	lieb
[4.A-	an-	[4.f	an-	4cc	sie
.	.	.	.	8ddn	mir’s
=15	=15	=15	=15	=15	=15
4.A-]	.	(4f]	.	(4.ee-	an-
.	.	8cc	.	.	.
4.A-	.	4b-)	.	4gg)	.
.	.	8a-	-ge-	8ff	-ge-
=16	=16	=16	=16	=16	=16
[4.B-	-tan,	(4.g	-tan,	(4.ee-	-tan,
4B-]	.	4f)	.	4dd)	.
8r	.	8r	.	8r	.
=17	=17	=17	=17	=17	=17
8.G	Wer	8.e-	Wer	8.b-	Wer
16F	will	16e-	will	16a-	will
8E-	mir	8e-	mir	8g	mir
8A-	weh-	8e-	weh-	8cc	weh-
8G	-ren,	8e-	-ren,	8b-	-ren,
8F	zu	8e-	zu	8a-	zu
=18	=18	=18	=18	=18	=18
4.B-	sin-	4.d	sin-	(4ff	sin-
.	.	.	.	8dd)	.
4B-	-gen	4d	-gen	4b-	-gen
8D	mit	8f	mit	8a-	mit
=19	=19	=19	=19	=19	=19
4E-	Lust	4e-	Lust	4g	Lust
8E-	zum	8e-	zum	8g	zum
8.c	Him-	8.e-	Him-	8.ee-	Him-
16A-	-mel	16e-	-mel	16cc	-mel
8c	hin-	8e-	hin-	8a-	hin-
=20	=20	=20	=20	=20	=20
[4.B-	-an,	(4.e-	-an,	(4.g	-an,
4B-]	.	4d)	.	4f)	.
8B-	den	8d	den	8f	den
=21	=21	=21	=21	=21	=21
4A-	Wol-	4d	Wol-	4b-	Wol-
8A-	-ken	8d	-ken	8b-	-ken
4G	zu	4e-	zu	4b-	zu
8G	ver-	8e-	ver-	8b-	ver-
=22	=22	=22	=22	=22	=22
[4.B-	-trau-	[4.en	-trau-	4.dd-X	-trau-
4B-]	-en,	4e]	-en,	4cc	-en,
8B-	den	8e	den	8g	den
=23	=23	=23	=23	=23	=23
4B-	Wol-	4en	Wol-	4cc	Wol-
8B-	-ken	8e	-ken	8cc	-ken
4A-	zu	4f	zu	4cc	zu
8F	ver-	8a-	ver-	8ff	ver-
=24	=24	=24	=24	=24	=24
4.B-	-trau-	4.a-	-trau-	4.ee-	-trau-
4B-	-en,	4a-	-en,	4dd	-en,
8r	.	8r	.	8r	.
=25	=25	=25	=25	=25	=25
4r	.	4r	.	4r	.
8c	wie	8e-	wie	8a-	wie
4B-	lieb,	4e-	lieb,	4g	lieb,
8An	wie	8e-	wie	8f	wie
=26	=26	=26	=26	=26	=26
8.A-X	lieb	8.d	lieb	8.cc	lieb
16G	sie	16e-	sie	16b-	sie
8c	mir’s	8e-	mir’s	8a-	mir’s
4B-	an-	4e-	an-	4g	an-
8An	-ge-	8e-	-ge-	8f	-ge-
=27	=27	=27	=27	=27	=27
4A-X	-tan,	4d	-tan,	4cc	-tan,
8G	wie	8e-	wie	8b-	wie
4c	lieb,	4e-	lieb,	4a-	lieb,
8B-	wie	8e-	wie	8g	wie
=28	=28	=28	=28	=28	=28
2.An	lieb	2.e-	lieb	(4f	lieb
.	.	.	.	8ee-	.
.	.	.	.	4dd)	.
.	.	.	.	8cc	sie
=29	=29	=29	=29	=29	=29
4.c	sie	4.e-	sie	(4b-	mir’s
.	.	.	.	[8an)	.
4.c	mir’s	4.e-	mir’s	4a]	.
.	.	.	.	8a	mir’s
=30	=30	=30	=30	=30	=30
[4.B-	an-	[4.d	an-	(4a-Xi	an-
.	.	.	.	8aa-	.
4B-]	.	4d]	.	4ff)	.
8B-	-ge-	8d	-ge-	8dd	-ge-
=31	=31	=31	=31	=31	=31
[4.D	-tan,	[4.f	-tan,	(4.b-	-tan,
4D]	.	4f]	.	4a-)	.
8r	.	8r	.	8r	.
=32	=32	=32	=32	=32	=32
4r	.	4r	.	4r	.
8E-	wie	8e-	wie	8g	wie
4F	lieb,	4e-	lieb,	4a-	lieb,
8G	wie	8e-	wie	8b-	wie
=33	=33	=33	=33	=33	=33
(4A-	lieb	4.a-	lieb	(4cc	lieb
8B-)	.	.	.	8dd)	.
4c	sie	4a-	sie	4ee-	sie
8c-X	mir’s	8a-	mir’s	8ff	mir’s
=34	=34	=34	=34	=34	=34
4.B-	an-	4.a-	an-	[4.gg	an-
4.B-	-ge-	4.d	-ge-	4gg]	.
.	.	.	.	8ff	-ge-
=35	=35	=35	=35	=35	=35
[2.E-	-tan,	4.g	-tan,	4.ee-	-tan,
.	.	4r	.	4r	.
.	.	8g	wie	8ee-	wie
=36	=36	=36	=36	=36	=36
2.E-_	.	(4e-	lieb,	(4gg	lieb,
.	.	8d)	.	8ff)	.
.	.	(4c	wie	(4ee-	wie
.	.	8a-)	.	8cc)	.
=37	=37	=37	=37	=37	=37
2.E-]	.	(4g	lieb	(4b-	lieb
.	.	8f#X)	.	8an)	.
.	.	4fn	sie	4a-X	sie
.	.	8e-	mir’s	8g	mir’s
=38	=38	=38	=38	=38	=38
4.B-	an-	4.f	an-	4.a-	an-
4.B-	-ge-	4.a-	-ge-	4.dd	-ge-
=39	=39	=39	=39	=39	=39
[2.E-	-tan.	(2.a-	-tan.	(2.dd	-tan.
=40	=40	=40	=40	=40	=40
4.E-]	.	4.g)	.	4.ee-)	.
4.r	.	4.r	.	4.r	.
==	==	==	==	==	==
*-	*-	*-	*-	*-	*-
!!!system-decoration: ([s1,s2,s3,s4])
!!!EED: Imke Redecker